albertroad.htmlalbertroad.htmlalbertroad.htmlalbertroad.htmlalbertroad.htmlalbertroad.htmlalbertroad.htmlalbertroad.htmlalbertroad.htmlFrom <I>Solas: Solas</I>
albertroad.htmlalbertroad.html<PRE>T:Doon Reel, The
T:Doon Reel, The
M:C|
L:1/8
R:reel
D:Solas: Solas
Z:Devin McCabe
K:D
!DFAF BFAF|DFAF EGFE|D2FA BAFA|1 (3Bcd ec dBAF:|2 (3Bcd ec dBAB||
!d2fd Adfd|d2fd BABc|d2fd Adfa|afeg fddc|
!d2fd Adfd|d2fd ~e3f|gfec dcBA|(3Bcd ec dBAF||

%  ABC2Win Version 2.1 9/24/2000
albertroad.htmlalbertroad.htmlalbertroad.htmlalbertroad.htmlalbertroad.htmlalbertroad.htmlalbertroad.html